X:15616
T:Slow March,1. TLY.032
M:4/4
L:1/8
Q:160
S:Wm.Tildesley,Swinton,Lancs.1860s.
R:March
O:England.
A:Lancashire.
N:In ms, grace note in 8th. bar is a crotchet, grace note in 17th. bar is
N:a semi-quaver, slurred with following crotchet D. Couldn't get ABC2WIN
N:to do these. TT.
H:1860.
Z:Taz Tarry.
K:D
A2|d2d2 (d<f) (e<g)|f2f2 (f<a) (g<b)|a2d'2 a-gf-e|f2d2d2A2|!
d2d2 (d<f)(e<g)|f2f2 (f<a) (g<b)|a2 g-f b-ag-f|{f2}e6:|!
A2|e2e2e-fe-d|c-BA-^G A2 z A|a2a2 a-ba-g|f-ed-c d2 z2|!
f2 ff e2b2|d2ddc2f2|e2 d-c d-BA-^G|A2A2 AGFE|!
{D}d2d2 (d<f) (e<g)|f2f2 (f<a) (g<b)|a2d'2 a-gf-e|f2d2d2A2|!
d2d2 (d<f) (e<g)|f2f2 (f<a) (g<b)|a2d2 f-ed-c|(d<f) (e<g) (f<a) (g<b)|!
a2d2 f-ed-c|(d<f) (e<g) (f<a) (g<b)|a2d2f-ed-c|d2 z fd2 z f|!
d2 d'2 a2 f2|d2 dd d2d2|d2 z2 d2 z2|d6:|]
